public/images/ai-automations.svg

<svg fill="none" height="168" viewBox="0 0 337 168" width="337" xmlns="http://www.w3.org/2000/svg"><g stroke-width="2"><path d="m312.782 3.05671c13.294 8.38719 23.218 41.44289 23.218 80.94329 0 39.5-9.924 72.556-23.218 80.943m0-161.88629c-2.133-1.34603-4.354-2.05671-6.633-2.05671-11.556 0-21.578 18.2565-26.54 44.962 4.494.3869 8.765 1.5535 12.677 3.3641 3.829-23.1206 11.368-40.51035 20.496-46.26939zm0 161.88629c-2.133 1.346-4.354 2.057-6.633 2.057-11.556 0-21.578-18.257-26.54-44.962 4.494-.387 8.765-1.554 12.677-3.364 3.829 23.121 11.368 40.51 20.496 46.269z" stroke="#000"/><g stroke="#40d251"><path d="m314.439 83.9998c0 15.3713-9.074 28.6212-22.154 34.6742-3.913 1.81-8.183 2.977-12.677 3.364-1.091.094-2.196.142-3.312.142-21.066 0-38.144-17.094-38.144-38.1802s17.078-38.18 38.144-38.18c1.116 0 2.221.048 3.312.142 4.494.3869 8.764 1.5536 12.677 3.3642 13.08 6.0529 22.154 19.3026 22.154 34.6738z"/><ellipse cx="168.501" cy="83.9998" rx="38.1436" ry="38.18"/><ellipse cx="168.501" cy="83.9998" rx="38.1436" ry="38.18"/></g><path d="m24.2178 3.05671c-13.2938 8.38719-23.2178 41.44289-23.2178 80.94329 0 39.5 9.924 72.556 23.2178 80.943m0-161.88629c2.1335-1.34603 4.3537-2.05671 6.6337-2.05671 11.5557 0 21.5779 18.2565 26.5391 44.962-4.4934.3869-8.7642 1.5535-12.6767 3.3641-3.8287-23.1206-11.368-40.51036-20.4961-46.26939zm0 161.88629c2.1335 1.346 4.3537 2.057 6.6337 2.057 11.5557 0 21.5779-18.257 26.5391-44.962-4.4934-.387-8.7642-1.554-12.6767-3.364-3.8287 23.121-11.368 40.51-20.4961 46.269z" stroke="#000"/><path d="m98.8457 83.9998c0 21.0862-17.0774 38.1802-38.1435 38.1802-1.116 0-2.2208-.048-3.3124-.142-4.4934-.387-8.7642-1.554-12.6767-3.364-13.0796-6.053-22.1545-19.3029-22.1545-34.6742 0-15.3712 9.0749-28.6209 22.1545-34.6738 3.9125-1.8106 8.1833-2.9773 12.6767-3.3642 1.0916-.094 2.1964-.142 3.3124-.142 21.0661 0 38.1435 17.0938 38.1435 38.18z" stroke="#40d251"/></g></svg>

<svg width="337" height="168" viewBox="0 0 337 168" fill="none" xmlns="http://www.w3.org/2000/svg">
<path d="M312.782 3.05671C326.076 11.4439 336 44.4996 336 84C336 123.5 326.076 156.556 312.782 164.943M312.782 3.05671C310.649 1.71068 308.428 1 306.149 1C294.593 1 284.571 19.2565 279.609 45.962C284.103 46.3489 288.374 47.5155 292.286 49.3261C296.115 26.2055 303.654 8.81575 312.782 3.05671ZM312.782 164.943C310.649 166.289 308.428 167 306.149 167C294.593 167 284.571 148.743 279.609 122.038C284.103 121.651 288.374 120.484 292.286 118.674C296.115 141.795 303.654 159.184 312.782 164.943Z" stroke="black" stroke-width="2"/>
<path d="M314.439 83.9998C314.439 99.3711 305.365 112.621 292.285 118.674C288.372 120.484 284.102 121.651 279.608 122.038C278.517 122.132 277.412 122.18 276.296 122.18C255.23 122.18 238.152 105.086 238.152 83.9998C238.152 62.9136 255.23 45.8198 276.296 45.8198C277.412 45.8198 278.517 45.8678 279.608 45.9618C284.102 46.3487 288.372 47.5154 292.285 49.326C305.365 55.3789 314.439 68.6286 314.439 83.9998Z" stroke="#40D251" stroke-width="2"/>
<ellipse cx="168.501" cy="83.9998" rx="38.1436" ry="38.18" stroke="#40D251" stroke-width="2"/>
<ellipse cx="168.501" cy="83.9998" rx="38.1436" ry="38.18" stroke="#40D251" stroke-width="2"/>
<path d="M24.2178 3.05671C10.924 11.4439 1 44.4996 1 84C1 123.5 10.924 156.556 24.2178 164.943M24.2178 3.05671C26.3513 1.71068 28.5715 1 30.8515 1C42.4072 1 52.4294 19.2565 57.3906 45.962C52.8972 46.3489 48.6264 47.5155 44.7139 49.3261C40.8852 26.2055 33.3459 8.81574 24.2178 3.05671ZM24.2178 164.943C26.3513 166.289 28.5715 167 30.8515 167C42.4072 167 52.4294 148.743 57.3906 122.038C52.8972 121.651 48.6264 120.484 44.7139 118.674C40.8852 141.795 33.3459 159.184 24.2178 164.943Z" stroke="black" stroke-width="2"/>
<path d="M98.8457 83.9998C98.8457 105.086 81.7683 122.18 60.7022 122.18C59.5862 122.18 58.4814 122.132 57.3898 122.038C52.8964 121.651 48.6256 120.484 44.7131 118.674C31.6335 112.621 22.5586 99.3711 22.5586 83.9998C22.5586 68.6286 31.6335 55.3789 44.7131 49.326C48.6256 47.5154 52.8964 46.3487 57.3898 45.9618C58.4814 45.8678 59.5862 45.8198 60.7022 45.8198C81.7683 45.8198 98.8457 62.9136 98.8457 83.9998Z" stroke="#40D251" stroke-width="2"/>
</svg>
